X:2468
T:Polska från Södermanland (Vingåkers höglorf)
T:Svenska Folkdansar H2 nr 17
O:Södermanland
B:Traditioner av Svenska Folkdansar Häfte 2, nr 17
B:Jämför [[http://www.smus.se/earkiv/fmk/browselarge.php?lang=en&katalogid=M+36&bildnr=00004|SMUS - katalog M36 bild 4]] nr 1 ur [[Notböcker/220 Svenska Folkdanser]]
B:Jämför [[http://www.smus.se/earkiv/fmk/browselarge.php?lang=sw&katalogid=Hs+11&bildnr=00002|SMUS - katalog Hs11 bild 2]]
N:Se även [[Musik/1302|+]]
R:Polska
Z:Nils L
M:3/4
L:1/8
K:Gm
GA Bc d2  | d2 ed c2 | d2 ed cB  | TA4 G2 ::
B2 AG ^F2 | GA Bc d2 | B2 AG ^FA | G4 G2 :|
(:musicend:)
(:music:)
